images/G2AI.svg

<svg width="97" height="50" viewBox="0 0 97 50" fill="none" xmlns="http://www.w3.org/2000/svg">
<path d="M25 50C38.807 50 50 38.807 50 25C50 11.193 38.807 0 25 0C11.193 0 0 11.193 0 25C0 38.807 11.193 50 25 50Z" fill="#FF492C"/>
<path d="M89.4764 0C89.2664 3.98974 86.0787 7.17743 82.089 7.38741C86.0787 7.5974 89.2664 10.7851 89.4764 14.7748C89.6864 10.7851 92.8741 7.5974 96.8638 7.38741C92.8741 7.17743 89.6864 3.98974 89.4764 0Z" fill="#FF492C"/>
<path d="M92.9528 15.8612H86.2172V37.6432H92.9528V15.8612Z" fill="#FF492C"/>
<path d="M67.2055 39.3271C68.53 39.3271 69.8073 39.1245 71.0079 38.7486V31.2258C69.9748 32.079 68.65 32.5915 67.2055 32.5915C63.9055 32.5915 61.2304 29.9164 61.2304 26.6164C61.2304 23.3165 63.9055 20.6413 67.2055 20.6413C70.5055 20.6413 73.1719 23.3165 73.1719 26.6164V37.9L79.4815 41.535L86.2173 37.6464L79.9161 34.0087L79.916 26.6164C79.916 19.5965 74.2254 13.9057 67.2055 13.9057C60.1856 13.9057 54.4948 19.5965 54.4948 26.6164C54.4948 33.6363 60.1856 39.3271 67.2055 39.3271Z" fill="#FF492C"/>
<path d="M17.0908 24.9999C17.0908 29.5013 20.7528 33.1633 25.2541 33.1633C27.2845 33.1633 29.1428 32.4163 30.5725 31.1853L33.6675 36.5456C31.3075 38.2683 28.3998 39.2856 25.2541 39.2856C17.3645 39.2856 10.9685 32.8899 10.9685 24.9999C10.9685 17.1103 17.3645 10.7143 25.2541 10.7143C26.2108 10.7143 27.1451 10.8089 28.0488 10.9883L25.2541 16.8369C20.7528 16.8369 17.0908 20.4989 17.0908 24.9999Z" fill="white"/>
<path d="M35.8202 19.1512H31.5509C31.6669 18.4806 32.0796 18.1066 32.9182 17.6809L33.7049 17.2809C35.1109 16.5589 35.8589 15.7462 35.8589 14.4176C35.8589 13.5792 35.5366 12.9212 34.8916 12.4442C34.2596 11.9669 33.4856 11.7346 32.5956 11.7346C31.8862 11.7346 31.2412 11.9152 30.6479 12.2892C30.0676 12.6506 29.6289 13.1149 29.3582 13.6952L30.5966 14.9336C31.0736 13.9662 31.7702 13.4889 32.6859 13.4889C33.4599 13.4889 33.9372 13.8889 33.9372 14.4432C33.9372 14.9079 33.7049 15.2946 32.8149 15.7462L32.3119 15.9912C31.2156 16.5459 30.4546 17.1779 30.0159 17.9002C29.5776 18.6096 29.3582 19.5252 29.3582 20.6219V20.9186H35.8202V19.1512Z" fill="white"/>
<path d="M35.2495 22.9592H28.1799L24.6452 29.0816H31.7149L35.2495 35.2042L38.7842 29.0816L35.2495 22.9592Z" fill="white"/>
</svg>

<?xml version="1.0" encoding="UTF-8"?>
<svg id="Layer_1" xmlns="http://www.w3.org/2000/svg" version="1.1" viewBox="0 0 97 50">
  <!-- Generator: Adobe Illustrator 30.1.0, SVG Export Plug-In . SVG Version: 2.1.1 Build 136)  -->
  <defs>
    <style>
      .st0 {
        fill: #ff492c;
      }
    </style>
  </defs>
  <path class="st0" d="M89.48,0c-.21,3.99-3.4,7.18-7.39,7.39,3.99.21,7.18,3.4,7.39,7.39.21-3.99,3.4-7.18,7.39-7.39-3.99-.21-7.18-3.4-7.39-7.39Z"/>
  <path class="st0" d="M92.95,15.86h-6.74v21.78h6.74V15.86Z"/>
  <path class="st0" d="M67.21,39.33c1.32,0,2.6-.2,3.8-.58v-7.52c-1.03.85-2.36,1.37-3.8,1.37-3.3,0-5.98-2.68-5.98-5.98s2.68-5.98,5.98-5.98,5.97,2.68,5.97,5.98v11.28l6.31,3.63,6.74-3.89-6.3-3.64v-7.39c0-7.02-5.69-12.71-12.71-12.71s-12.71,5.69-12.71,12.71,5.69,12.71,12.71,12.71Z"/>
  <path class="st0" d="M25,0C11.19,0,0,11.19,0,25s11.19,25,25,25,25-11.19,25-25S38.81,0,25,0ZM29.36,20.62c0-1.1.22-2.01.66-2.72.44-.72,1.2-1.35,2.3-1.91l.5-.24c.89-.45,1.12-.84,1.12-1.3,0-.55-.48-.95-1.25-.95-.92,0-1.61.48-2.09,1.44l-1.24-1.24c.27-.58.71-1.04,1.29-1.41.59-.37,1.24-.55,1.95-.55.89,0,1.66.23,2.3.71.65.48.97,1.14.97,1.97,0,1.33-.75,2.14-2.15,2.86l-.79.4c-.84.43-1.25.8-1.37,1.47h4.27v1.77h-6.46v-.3ZM25.25,39.29c-7.89,0-14.29-6.4-14.29-14.29s6.4-14.29,14.29-14.29c.96,0,1.89.09,2.79.27l-2.79,5.85c-4.5,0-8.16,3.66-8.16,8.16s3.66,8.16,8.16,8.16c2.03,0,3.89-.75,5.32-1.98l3.09,5.36c-2.36,1.72-5.27,2.74-8.41,2.74ZM35.25,35.2l-3.53-6.12h-7.07l3.53-6.12h7.07l3.53,6.12-3.53,6.12Z"/>
</svg>
